images/briefcase.svg

<svg width="24" height="24" viewBox="0 0 24 24" fill="none" xmlns="http://www.w3.org/2000/svg">
<path fill-rule="evenodd" clip-rule="evenodd" d="M9.81818 1C8.9502 1 8.11777 1.3448 7.50401 1.95856C6.89026 2.57231 6.54545 3.40475 6.54545 4.27273V5.36364H3.27273C1.46525 5.36364 0 6.82889 0 8.63636V19.5455C0 21.3529 1.46525 22.8182 3.27273 22.8182H7.63636H16.3636H20.7273C22.5348 22.8182 24 21.3529 24 19.5455V8.63636C24 6.82889 22.5348 5.36364 20.7273 5.36364H17.4545V4.27273C17.4545 3.40475 17.1097 2.57231 16.496 1.95856C15.8822 1.3448 15.0498 1 14.1818 1H9.81818ZM15.2727 5.36364V4.27273C15.2727 3.9834 15.1578 3.70592 14.9532 3.50134C14.7486 3.29675 14.4711 3.18182 14.1818 3.18182H9.81818C9.52885 3.18182 9.25138 3.29675 9.04679 3.50134C8.84221 3.70592 8.72727 3.9834 8.72727 4.27273V5.36364H15.2727ZM8.72727 7.54545H15.2727V20.6364H8.72727V7.54545ZM6.54545 7.54545H3.27273C2.67023 7.54545 2.18182 8.03387 2.18182 8.63636V19.5455C2.18182 20.1479 2.67023 20.6364 3.27273 20.6364H6.54545V7.54545ZM17.4545 20.6364V7.54545H20.7273C21.3298 7.54545 21.8182 8.03387 21.8182 8.63636V19.5455C21.8182 20.1479 21.3298 20.6364 20.7273 20.6364H17.4545Z" fill="#A5A4AB"/>
</svg>

<svg viewBox="0 0 24 24" fill="none" xmlns="http://www.w3.org/2000/svg"><path fill-rule="evenodd" clip-rule="evenodd" d="M9.818 1a3.273 3.273 0 0 0-3.273 3.273v1.09H3.273A3.273 3.273 0 0 0 0 8.637v10.91a3.273 3.273 0 0 0 3.273 3.272h17.454A3.273 3.273 0 0 0 24 19.545V8.636a3.273 3.273 0 0 0-3.273-3.272h-3.273V4.273A3.273 3.273 0 0 0 14.182 1H9.818Zm5.455 4.364V4.273a1.09 1.09 0 0 0-1.091-1.091H9.818a1.09 1.09 0 0 0-1.09 1.09v1.092h6.545ZM8.727 7.545h6.546v13.091H8.727V7.546Zm-2.182 0H3.273a1.09 1.09 0 0 0-1.091 1.091v10.91c0 .602.488 1.09 1.09 1.09h3.273V7.546Zm10.91 13.091V7.546h3.272a1.09 1.09 0 0 1 1.091 1.09v10.91a1.09 1.09 0 0 1-1.09 1.09h-3.274Z" fill="#A5A4AB"/></svg>
